img/hero/links/instagram.svg

<svg width="20" height="20" viewBox="0 0 20 20" fill="none" xmlns="http://www.w3.org/2000/svg">
<path fill-rule="evenodd" clip-rule="evenodd" d="M10 0C7.28416 0 6.94362 0.0115116 5.87701 0.0601777C4.81263 0.108725 4.08569 0.277786 3.44962 0.525007C2.79203 0.780524 2.23436 1.12246 1.67839 1.67839C1.12246 2.23436 0.780524 2.79203 0.525007 3.44962C0.277786 4.08569 0.108725 4.81263 0.0601777 5.87701C0.0115116 6.94362 0 7.28416 0 10C0 12.7158 0.0115116 13.0564 0.0601777 14.123C0.108725 15.1874 0.277786 15.9143 0.525007 16.5504C0.780524 17.208 1.12246 17.7656 1.67839 18.3216C2.23436 18.8775 2.79203 19.2195 3.44962 19.475C4.08569 19.7222 4.81263 19.8913 5.87701 19.9398C6.94362 19.9885 7.28416 20 10 20C12.7158 20 13.0564 19.9885 14.123 19.9398C15.1874 19.8913 15.9143 19.7222 16.5504 19.475C17.208 19.2195 17.7656 18.8775 18.3216 18.3216C18.8775 17.7656 19.2195 17.208 19.475 16.5504C19.7222 15.9143 19.8913 15.1874 19.9398 14.123C19.9885 13.0564 20 12.7158 20 10C20 7.28416 19.9885 6.94362 19.9398 5.87701C19.8913 4.81263 19.7222 4.08569 19.475 3.44962C19.2195 2.79203 18.8775 2.23436 18.3216 1.67839C17.7656 1.12246 17.208 0.780524 16.5504 0.525007C15.9143 0.277786 15.1874 0.108725 14.123 0.0601777C13.0564 0.0115116 12.7158 0 10 0ZM10 1.8018C12.6701 1.8018 12.9864 1.812 14.0409 1.86011C15.0158 1.90457 15.5453 2.06748 15.8977 2.20443C16.3645 2.38583 16.6976 2.60253 17.0475 2.95248C17.3975 3.30239 17.6142 3.63551 17.7956 4.10229C17.9325 4.45466 18.0954 4.98415 18.1399 5.95914C18.188 7.0136 18.1982 7.32989 18.1982 10C18.1982 12.6701 18.188 12.9864 18.1399 14.0409C18.0954 15.0158 17.9325 15.5453 17.7956 15.8977C17.6142 16.3645 17.3975 16.6976 17.0475 17.0475C16.6976 17.3975 16.3645 17.6142 15.8977 17.7956C15.5453 17.9325 15.0158 18.0954 14.0409 18.1399C12.9866 18.188 12.6703 18.1982 10 18.1982C7.32969 18.1982 7.01348 18.188 5.95914 18.1399C4.98415 18.0954 4.45466 17.9325 4.10229 17.7956C3.63551 17.6142 3.30239 17.3975 2.95248 17.0475C2.60257 16.6976 2.38583 16.3645 2.20443 15.8977C2.06748 15.5453 1.90457 15.0158 1.86011 14.0409C1.812 12.9864 1.8018 12.6701 1.8018 10C1.8018 7.32989 1.812 7.0136 1.86011 5.95914C1.90457 4.98415 2.06748 4.45466 2.20443 4.10229C2.38583 3.63551 2.60253 3.30239 2.95248 2.95248C3.30239 2.60253 3.63551 2.38583 4.10229 2.20443C4.45466 2.06748 4.98415 1.90457 5.95914 1.86011C7.0136 1.812 7.32989 1.8018 10 1.8018ZM10 13.3333C8.15904 13.3333 6.66667 11.841 6.66667 10C6.66667 8.15904 8.15904 6.66667 10 6.66667C11.841 6.66667 13.3333 8.15904 13.3333 10C13.3333 11.841 11.841 13.3333 10 13.3333ZM10 4.86487C7.16393 4.86487 4.86487 7.16393 4.86487 10C4.86487 12.8361 7.16393 15.1351 10 15.1351C12.8361 15.1351 15.1351 12.8361 15.1351 10C15.1351 7.16393 12.8361 4.86487 10 4.86487ZM15.338 5.86197C16.0008 5.86197 16.538 5.32474 16.538 4.66199C16.538 3.99924 16.0008 3.46197 15.338 3.46197C14.6753 3.46197 14.138 3.99924 14.138 4.66199C14.138 5.32474 14.6753 5.86197 15.338 5.86197Z" fill="white"/>
</svg>

<svg width="20" height="20" fill="none" xmlns="http://www.w3.org/2000/svg"><path fill-rule="evenodd" clip-rule="evenodd" d="M10 0C7.284 0 6.944.012 5.877.06 4.813.11 4.086.278 3.45.525a4.902 4.902 0 0 0-1.772 1.153A4.902 4.902 0 0 0 .525 3.45C.278 4.086.109 4.813.06 5.877.012 6.944 0 7.284 0 10s.012 3.056.06 4.123c.049 1.064.218 1.791.465 2.427a4.902 4.902 0 0 0 1.153 1.772 4.902 4.902 0 0 0 1.772 1.153c.636.247 1.363.416 2.427.465 1.067.048 1.407.06 4.123.06s3.056-.012 4.123-.06c1.064-.049 1.791-.218 2.427-.465a4.902 4.902 0 0 0 1.772-1.153 4.902 4.902 0 0 0 1.153-1.772c.247-.636.416-1.363.465-2.427.048-1.067.06-1.407.06-4.123s-.012-3.056-.06-4.123c-.049-1.064-.218-1.791-.465-2.427a4.902 4.902 0 0 0-1.153-1.772A4.902 4.902 0 0 0 16.55.525C15.914.278 15.187.109 14.123.06 13.056.012 12.716 0 10 0Zm0 1.802c2.67 0 2.986.01 4.04.058.976.045 1.505.207 1.858.344.466.182.8.399 1.15.748.35.35.566.684.748 1.15.137.353.3.882.344 1.857.048 1.055.058 1.37.058 4.041 0 2.67-.01 2.986-.058 4.04-.045.976-.207 1.505-.344 1.858-.182.466-.398.8-.748 1.15-.35.35-.683.566-1.15.748-.353.137-.882.3-1.857.344-1.054.048-1.37.058-4.041.058-2.67 0-2.987-.01-4.04-.058-.976-.045-1.505-.207-1.858-.344a3.097 3.097 0 0 1-1.15-.748 3.098 3.098 0 0 1-.748-1.15c-.137-.353-.3-.882-.344-1.857-.048-1.055-.058-1.37-.058-4.041 0-2.67.01-2.986.058-4.04.045-.976.207-1.505.344-1.858.182-.466.399-.8.748-1.15.35-.35.684-.566 1.15-.748.353-.137.882-.3 1.857-.344 1.055-.048 1.37-.058 4.041-.058Zm0 11.531a3.333 3.333 0 1 1 0-6.666 3.333 3.333 0 0 1 0 6.666Zm0-8.468a5.135 5.135 0 1 0 0 10.27 5.135 5.135 0 0 0 0-10.27Zm5.338.997a1.2 1.2 0 1 0 0-2.4 1.2 1.2 0 0 0 0 2.4Z" fill="#fff"/></svg>
